X: 3088
Q:"Reel."
M: C
L: 1/8
K: A
uE |\
g |\
aece dfec |
aece fBBg |\
[1 aece dfec | dBec A/A/A A :|\
[2 afge fdec | dfec A/A/A A |]


